X: 1
T: Albert Farmer's Bonfire
M: 4/4
L: 1/8
R: barndance
K: Dmaj
|:f2fd A2F2|GF GF G4| ed cA B2c2| defd A4|
f2fdA2F2|GF GF G4| ed cA B2c2| d4 d4:|
|:f2fd f2fd|gf ed e2 ef |gfed cABc| defd A4|
f2fd A2F2| GF GF G4| ed cA B2c2|d4d4:|
